svg/log.svg

<?xml version="1.0" encoding="UTF-8"?>
<svg xmlns="http://www.w3.org/2000/svg" xmlns:xlink="http://www.w3.org/1999/xlink" width="32" height="32" viewBox="0 0 32 32">
<rect x="-3.2" y="-3.2" width="38.4" height="38.4" fill="rgb(100%, 100%, 100%)" fill-opacity="1"/>
<path fill-rule="nonzero" fill="rgb(0%, 0%, 0%)" fill-opacity="1" d="M 32 32 L 0 32 L 0 0 L 32 0 Z M 3.105469 28.800781 L 28.929688 28.800781 L 28.929688 3.199219 L 3.105469 3.199219 M 6.082031 20.382812 L 17.375 20.382812 L 17.375 23.359375 L 6.078125 23.359375 L 6.078125 20.382812 M 6.078125 14.464844 L 25.917969 14.464844 L 25.917969 17.441406 L 6.082031 17.441406 Z M 6.078125 8.640625 L 25.917969 8.640625 L 25.917969 11.617188 L 6.082031 11.617188 Z M 6.078125 8.640625 "/>
</svg>

<svg role="img" viewBox="0 0 32 32" xmlns="http://www.w3.org/2000/svg"><path d="M-3.2-3.2h38.4v38.4H-3.2z" fill="rgb(100%, 100%, 100%)"/><path d="M32 32H0V0h32ZM3.105 28.8H28.93V3.2H3.105m2.977 17.183h11.293v2.976H6.078v-2.976m0-5.918h19.84v2.976H6.082Zm0-5.824h19.84v2.976H6.082Zm0 0" fill="rgb(0%, 0%, 0%)"/></svg>
